X:1
T:The Lincolnshire Poacher
T:The Lincolnshire Poacher
T:Lincolnshire County Song Edited and arranged by Granville Bantock
T:As me and my companions were setting four or five, And taking on 'em up again, we caught a hare alive, We took the hare alive, my boys, and through the woods did steer. Oh, 'tis my delight on a shining night, in the season of the year. I threw him over my shoulder, and then we trudged home, We took him to a neighbour's house, and sold him for a crown, We sold him for a crown, my boys, but I did not tell you where. Oh, 'tis my delight on a shining night, in the season of the year. Success to every gentleman that lives in Lincolnshire (Or: Bad luck to every magistrate) Success to every poacher that wants to sell a hare, Bad luck to every gamekeeper that will not sell his deer. Oh, 'tis my delight on a shining night, in the season of the year.
T:by IMSLP 
T:by IMSLP 
T:by IMSLP 
Z:by IMSLP
%%score ( 1 2 ) { ( 3 5 ) | ( 4 6 ) }
L:1/8
Q:1/4=146
M:6/8
K:A
V:1 treble nm="Voice"
V:2 treble 
V:3 treble nm="Piano"
V:5 treble 
V:4 bass 
V:6 bass 
V:1
"^Animato"!mf! E | A2- A (AG) F | (E2 D) C2 E | A2 A B2 G | A3- A2 E |"^cresc." A2 B c2 d | %6
w: When|I was bound * ap\-|pren\- * tice In|fa\- mous Lin\- coln\-|shire, _ Full|well I served my|
w: As|me _ and _ my|com\-- * rade Were|set\- ting of a|snare, _ 'Twas|then we spied the|
 (e2 c) A2 B | c2 c (cB) A | B3- B2 E |"^cresc." A2 B c2 d | (e2 c) A2 B | c2 c (cB) A | %12
w: mas\-- * ter For|more than sev\-- * en|year, _ Till|I took up to|poach\-- * ing, As|you shall quick\-- * ly|
w: game\- keep\- er, For|him we did _ not|care, _ For|we can wres\- and|fight, my boys, And|jump o'er an\-- * y\-|
 B3!f! c2 B | A2 A A G F | E2 D C2!f! E/ E/ | A2 A B2 G |"^sostenuto" A3- A2 z ::!mf! E | %18
w: hear; Oh! 'tis|my de\- light on a|shin\- ing night, In the|sea\- son of the|year. _|As|
w: where, Oh! 'tis|my de- light on a|shin- ing night, In the|sea- son of the|year. _|_|
 A2- A (AG) F | (E2 D) C2 E | A2 A B2 G | A3- A2 E |"^cresc." A2 B c2 d | (e2 c) A2 B | %24
w: me _ and _ my|com\-- * rade Were|set\- ting four or|five _ And|tak\- ing on 'em|up a\- gain, We|
w: ||||||
 c2 c (cB) A | B3- B2 E |"^cresc." A2 B c2 d | e2 c A2 B | c2 c (cB) A | B3!f! c2 B | A2 A A G F | %31
w: caught the hare _ a\-|live: _ We|took the hare a\-|live, my boys, *|thro' the woods did steer.|Oh! 'tis *|my de\- light on a|
w: |||||||
 E2 D C2!f! E/ E/ | A2 A B2 G |"^sostenuto" A3- A2 z :| %34
w: shin\- ing night, In the|sea\- son of the|year. _|
w: |||
V:2
 x | x6 | x6 | x6 | x6 | x6 | x6 | x6 | x6 | x3 c c x | x6 | x6 | x6 | x6 | x6 | x6 | x6 :: x | %18
w: ||||||||||||||||||
w: |||||||||* tle|||||||||
 x6 | x6 | x6 | x6 | x6 | x6 | x6 | x6 | x6 | x5 B/ B/ | x6 | x6 | x6 | x6 | x6 | x6 :| %34
w: ||||||||||||||||
w: ||||||||||||||||
V:3
!mf!"^1-\n2-" (E | [CA]2 [CA] [FA][EG][DF] | [CE]2 [B,D] [A,C]2) E | [CA]2 z [EGB]2 z | %4
w: ||||
 [EAc]3- [EAc]AE |"_cresc." ([CA]2 [EB] [Ac]2 [Bd] | [ce]2 [Ac] [FA]2) ([GB] | [Ac]2 [Ac] [Ac]BA | %8
w: ||||
 [GB]3- [GB]G)(E |"_cresc." A2 [EB] [Ec]2 [Fd] | e2 c A2) (B | [Ec]2 [Ec] [Ac][GB][FA] | %12
w: ||||
 B3)!f! c2 (B | [FA]2 [FA] [FA][=EG][DF] | [CE]2 [B,D] [A,C]2) z |!f! [CEA]2 [CFA] [DEGB]2 [DEG] | %16
w: ||||
 [CEA]3- [CEA]2 z ::!mf!"^3 -" (E | [CA]2 [CA] [FA][EG][DF] | [CE]2 [B,D] [A,C]2) E | %20
w: sostenuto *||||
 [CA]2 z [EGB]2 z | [EAc]3- [EAc]AE |"_cresc." ([CA]2 [EB] [Ac]2 [Bd] | [ce]2 [Ac] [FA]2) ([GB] | %24
w: ||||
 [Ac]2 [Ac] [Ac]BA | [GB]3- [GB]G)(E |"_cresc." A2 [EB] [Ec]2 [Fd] | e2 c A2) (B | %28
w: ||||
 [Ec]2 [Ec] [Ac][GB][FA] | B3)!f! (c2 B | [FA]2 [FA] [FA][=EG][DF] | [CE]2 [B,D] [A,C]2) z | %32
w: ||||
!f! [CEA]2 [CFA] [DEGB]2 [DEG] | [CEA]3- [CEA]2 z :| %34
w: |sostenuto *|
V:4
 z | [A,,,A,,]3 [D,,D,]3 | [A,,A,]3- [A,,A,]2 z | [A,,A,]2 z [E,,E,]2 z | [A,,A,]E,C, A,,2 E, | %5
 ([C,A,]2 [E,B,] [A,C]2 [B,D] | [B,D]2 [A,C] [F,A,]2) [E,E] | [A,E]3 [F,^D]3 | [E,E]2 (B, E2 =D) | %9
 C2 G, A,2 [F,A,] | A,3 A,3 | [A,,A,]3 [F,,F,]3 | [D,,D,]3 [C,,C,]3 | [F,,F,]3 [D,,D,]3 | %14
 [A,,,A,,]3- [A,,,A,,]2 z | [A,,A,][G,,G,][F,,F,] [E,,E,]2 [E,,E,] | [A,,,A,,]3- [A,,,A,,]2 z :: %17
 z | [A,,,A,,]3 [D,,D,]3 | [A,,A,]3- [A,,A,]2 z | [A,,A,]2 z [E,,E,]2 z | [A,,A,]E,C, A,,2 E, | %22
 ([C,A,]2 [E,B,] [A,C]2 [B,D] | [B,D]2 [A,C] [F,A,]2) [E,E] | [A,E]3 [F,^D]3 | [E,E]2 (B, E2 =D) | %26
 C2 G, A,2 [F,A,] | A,3 A,3 | [A,,A,]3 [F,,F,]3 | [D,,D,]3 [C,,C,]3 | [F,,F,]3 [D,,D,]3 | %31
 [A,,,A,,]3- [A,,,A,,]2 z | [A,,A,][G,,G,][F,,F,] [E,,E,]2 [E,,E,] | [A,,,A,,]3- [A,,,A,,]2 z :| %34
V:5
 x | x6 | x6 | x6 | x6 | x6 | x6 | x6 | x6 | x6 | E3 F3 | x6 | F3 [^EG]3 | x6 | x6 | x6 | x6 :: x | %18
 x6 | x6 | x6 | x6 | x6 | x6 | x6 | x6 | x6 | E3 F3 | x6 | F3 [^EG]3 | x6 | x6 | x6 | x6 :| %34
V:6
 x | x6 | x6 | x6 | x6 | x6 | x6 | x6 | x6 | x6 | C,3 D,3 | x6 | x6 | x6 | x6 | x6 | x6 :: x | x6 | %19
 x6 | x6 | x6 | x6 | x6 | x6 | x6 | x6 | C,3 D,3 | x6 | x6 | x6 | x6 | x6 | x6 :| %34

